public/icon.svg

<svg xmlns="http://www.w3.org/2000/svg" width="512" height="512" fill="none"><rect width="512" height="512" fill="#7B341E" rx="29"/><g clip-path="url(#clip0)"><path fill="#fff" fill-rule="evenodd" d="M311.321 386.979c27.162-21.799 23.766-50.108 12.704-85.518-15.881-50.995 4.6-57.209 9.858-110.966 9.528-96.762-25.958-80.783-30.777-157.128-38.881 44.485 2.519 104.16-13.033 137.993-9.2-22.588-5.148-53.264-27.052-75.852 7.666 37.778-23.548 62.437.985 109.487 27.162 51.981 56.734 106.428 39.977 151.308-13.91-35.312-42.605-66.185-85.429-60.958-58.705 7.102-72.176 46.655-101.2 68.355 24.314 26.336 18.729 65.495 68.452 82.658 45.781 15.782 98.353 3.847 117.081-43.104 6.134 11.639 6.462 31.761 13.581 45.076 7.229 13.415 19.386 20.122 23.876 7.201-21.028-19.136-15.88-45.077-28.914-68.651l-.109.099z" clip-rule="evenodd"/></g><defs><clipPath id="clip0"><path fill="#fff" transform="translate(110 31)" d="M0 0H230V434H0z"/></clipPath></defs></svg>

<svg xmlns="http://www.w3.org/2000/svg" width="512" height="512" fill="none" viewBox="0 0 512 512"><rect width="512" height="512" fill="#7B341E" rx="29"/><g clip-path="url(#clip0)"><path fill="#fff" fill-rule="evenodd" d="M311.321 386.979C338.483 365.18 335.087 336.871 324.025 301.461C308.144 250.466 328.625 244.252 333.883 190.495C343.411 93.7328 307.925 109.712 303.106 33.3673C264.225 77.8523 305.625 137.527 290.073 171.36C280.873 148.772 284.925 118.096 263.021 95.5082C270.687 133.286 239.473 157.945 264.006 204.995C291.168 256.976 320.74 311.423 303.983 356.303C290.073 320.991 261.378 290.118 218.554 295.345C159.849 302.447 146.378 342 117.354 363.7C141.668 390.036 136.083 429.195 185.806 446.358C231.587 462.14 284.159 450.205 302.887 403.254C309.021 414.893 309.349 435.015 316.468 448.33C323.697 461.745 335.854 468.452 340.344 455.531C319.316 436.395 324.464 410.454 311.43 386.88L311.321 386.979Z" clip-rule="evenodd"/></g><defs><clipPath id="clip0"><rect width="230" height="434" fill="#fff" transform="translate(110 31)"/></clipPath></defs></svg>
